assets/icons/qvision/2k_plus.svg

<svg xmlns="http://www.w3.org/2000/svg" height="24" viewBox="0 0 24 24" width="24"><path d="M0 0h24v24H0V0z" fill="none"/><path d="M19 3H5c-1.1 0-2 .9-2 2v14c0 1.1.9 2 2 2h14c1.1 0 2-.9 2-2V5c0-1.1-.9-2-2-2zm-9.5 8.5c0 .55-.45 1-1 1h-2v1h3V15H5v-2.5c0-.55.45-1 1-1h2v-1H5V9h3.5c.55 0 1 .45 1 1v1.5zm4.75 3.5l-1.75-2.25V15H11V9h1.5v2.25L14.25 9H16l-2.25 3L16 15h-1.75zM20 12.5h-1.5V14h-1v-1.5H16v-1h1.5V10h1v1.5H20v1z"/></svg>

<svg width="24" height="24" viewBox="0 0 24 24" fill="none" xmlns="http://www.w3.org/2000/svg">
<g clip-path="url(#clip0_147_1319)">
<path d="M19 3H5C3.9 3 3 3.9 3 5V19C3 20.1 3.9 21 5 21H19C20.1 21 21 20.1 21 19V5C21 3.9 20.1 3 19 3ZM9.5 11.5C9.5 12.05 9.05 12.5 8.5 12.5H6.5V13.5H9.5V15H5V12.5C5 11.95 5.45 11.5 6 11.5H8V10.5H5V9H8.5C9.05 9 9.5 9.45 9.5 10V11.5ZM14.25 15L12.5 12.75V15H11V9H12.5V11.25L14.25 9H16L13.75 12L16 15H14.25ZM20 12.5H18.5V14H17.5V12.5H16V11.5H17.5V10H18.5V11.5H20V12.5Z" fill="#323232"/>
</g>
<defs>
<clipPath id="clip0_147_1319">
<rect width="24" height="24" fill="white"/>
</clipPath>
</defs>
</svg>
